polaris-icons/icons/new-icons/EditMajor.svg

<svg width="20" height="20" viewBox="0 0 20 20" fill="none" xmlns="http://www.w3.org/2000/svg">
<path fill-rule="evenodd" clip-rule="evenodd" d="M15.6554 4.34439C14.6031 3.29209 12.897 3.2921 11.8447 4.34442L11.2462 4.94293L11.2374 4.93418L10.1768 5.99484L10.1855 6.00361L4.30546 11.8839C3.78975 12.3996 3.50003 13.099 3.50003 13.8284V15.75C3.50003 15.9489 3.57905 16.1396 3.7197 16.2803C3.86035 16.421 4.05112 16.5 4.25003 16.5L6.17159 16.5C6.90095 16.5 7.60043 16.2102 8.11616 15.6945L15.6554 8.15501C16.7076 7.10273 16.7076 5.39667 15.6554 4.34439ZM11.2462 7.06427L5.36613 12.9445C5.13172 13.1789 5.00003 13.4969 5.00003 13.8284L5.00003 15H6.17159C6.50311 15 6.82106 14.8683 7.05548 14.6338L12.9355 8.7536L11.2462 7.06427ZM13.9962 7.69293L14.5947 7.09437C15.0612 6.62787 15.0612 5.87154 14.5947 5.40505C14.1282 4.93855 13.3718 4.93855 12.9054 5.40506L12.3068 6.00359L13.9962 7.69293Z" fill="#4A4A4A"/>
</svg>

<svg viewBox="0 0 20 20" xmlns="http://www.w3.org/2000/svg"><path fill-rule="evenodd" d="M15.655 4.344a2.695 2.695 0 0 0-3.81 0l-.599.599-.009-.009-1.06 1.06.008.01-5.88 5.88a2.75 2.75 0 0 0-.805 1.944v1.922a.75.75 0 0 0 .75.75h1.922c.729 0 1.428-.29 1.944-.806l7.54-7.539a2.695 2.695 0 0 0 0-3.81Zm-4.409 2.72-5.88 5.88a1.25 1.25 0 0 0-.366.884v1.172h1.172c.331 0 .65-.132.883-.366l5.88-5.88-1.689-1.69Zm2.75.629.599-.599a1.195 1.195 0 1 0-1.69-1.689l-.598.599 1.69 1.689Z" fill="#5C5F62"/></svg>
